X:228
T: UND VON BERGEN RINGS UMGEBEN
N: B0273
O: Europa, Mitteleuropa, Deutschland; Frankreich, Elsass
R: Stimmungs - Lied, Sehnsucht, Abschied
M: 3/4
L: 1/16
K: Bb
D2E2 | F4B4A2G2 | F4D2D2E2C2 | B,8
D2E2 | F4B4c2d2 | e4F4d3c | B4z4
F3D | E4c4F3E | D2F2B4
F2D2 | E4c4F2E2 | D2F2B4
D2E2 | F2F2B2B2A2G2 | F4B4
A2G2 | F3Fd2B2c2A2 | B8

